X: 6
T: 6. The Brighton Puzzle
M: 2/4
L: 1/8
Q: 1/4=120
K: D
F/G/ | [AF][AF][AF] F/G/ | [AF][AF][AF] d/c/ | B/A/G/F/ EA | FD D F/G/ | [AF][AF][AF] F/G/ | [AF][AF][AF] d/f/ | edcB | A/^G/A/B/ A :|!
|:f/g/ | aaa f/g/ | aaa a/f/ | eg/f/ ce/c/ | df/d/ .A f/g/ | aaa f/g/ | aaa f/g/ | bgec | d2 d :|!

